!!!!SEGMENT: pl-sa--285-a-vii-45--001_brentner-johann-joseph-ignaz--plaude-exsulta-cor-meum.krn
!!!cenid: 17xx:550
!!!COM: Brentner, Johann Joseph Ignaz
!!!COM-rismid: pe30000477
!!!CDT: 1689/11/03-1742/06/28
!!!CNT: Czech
!!!OTL: Plaude exsulta cor meum
!!!PDT:
!!!AGN: Sacred
!!!SMS-siglum: PL-SA
!!!SMS-shelfmark: 285/A VII 45
!!!SMS-shelfwork: 001 W
!!!SMS-variant:
!!!SMS-altvar:
!!!NIFC-rismid: 1001041293
!!!URL-scan: http://bc.bdsandomierz.pl/dlibra/publication/1781/edition/1749/content
!!!ONB-nifc:
**kern	**fba	**kern	**dynam	**kern	**dynam	**kern	**text
*part4	*	*part3	*part3	*part2	*part2	*part1	*part1
*	*	*group1	*	*group1	*	*	*
*staff4	*	*staff3	*	*staff2	*	*staff1	*staff1
*I"Organo.	*	*I"Violino Secondo.	*	*I"Violino Primo.	*	*I"Canto Solo	*
*I'org	*	*I'vl 2	*	*I'vl 1	*	*I'S solo	*
*clefF4	*	*clefG2	*	*clefG2	*	*clefC1	*
*k[b-e-]	*	*k[b-e-]	*	*k[b-e-]	*	*k[b-e-]	*
*B-:	*	*B-:	*	*B-:	*	*B-:	*
*M2/2	*	*M2/2	*	*M2/2	*	*M2/2	*
*met(c|)	*	*met(C.)	*	*met(C.)	*	*met(C.)	*
=1	=1	=1	=1	=1	=1	=1	=1
!	!	!	!	!LO:TX:a:t=P:problem:mixed beam	!	!	!
!LO:TX:a:t=P:problem:mixed beam	!	!	!	!LO:TX:b:t=Plaude	!	!	!
!LO:TX:a:t=Amo.	!	!LO:TX:b:t=Plaude	!	!	!	!	!
!LO:TX:b:t=Plaude.	!	!LO:TX:a:t=Andante.	!	!LO:TX:a:t=Andante.	!	!LO:TX:a:t=P:problem:kolejność bemoli b-, ee-	!
8BB-/L	.	8dd\L	.	8bb-\L	.	00r	.
8B-\	.	16dd\L	.	16b-/L	.	.	.
.	.	16cc\JJ	.	16cc/JJ	.	.	.
8B-\	.	8b-\L	.	16dd\LL	.	.	.
.	.	.	.	16ee-\	.	.	.
8B-\J	.	8dd\J	.	16ff\	.	.	.
.	.	.	.	16gg\JJ	.	.	.
!	!	!	!	!LO:TX:a:t=P:problem:mixed beam	!	!	!
8A\L	.	8cc\L	.	8ff\L	.	.	.
8A\	6	16cc\L	.	16f/L	.	.	.
.	.	16b-\JJ	.	16g/JJ	.	.	.
8A\	.	8a\L	.	16a\LL	.	.	.
.	.	.	.	16b-\	.	.	.
8A\J	.	8cc\J	.	16cc\	.	.	.
.	.	.	.	16dd\JJ	.	.	.
=2	=2	=2	=2	=2	=2	=2	=2
8G\L	6	8b-\L	.	16ee-\LL	.	.	.
.	.	.	.	16dd\	.	.	.
8G\	.	8b-\	.	16ee-\	.	.	.
.	.	.	.	16ff\JJ	.	.	.
8A\	.	8cc\	.	16ee-\LL	.	.	.
.	.	.	.	16gg\	.	.	.
8A\J	.	8cc\J	.	16ff\	.	.	.
.	.	.	.	16ee-\JJ	.	.	.
!LO:TX:a:t=P:problem:mixed beam	!	!	!	!	!	!	!
8B-\L	.	16b-\LL	.	8dd\L	.	.	.
.	.	16cc\	.	.	.	.	.
16BB-/L	.	16dd\	.	8b-\J	.	.	.
16C/JJ	.	16ee-\JJ	.	.	.	.	.
8D/L	.	8ff\L	.	16r	.	.	.
.	.	.	.	16b-\LL	.	.	.
8BB-/J	.	8b-\J	.	16dd\	.	.	.
.	.	.	.	16ff\JJ	.	.	.
=3	=3	=3	=3	=3	=3	=3	=3
8E-\L	.	8b-\L	.	16gg\LL	.	.	.
.	.	.	.	16b-\JJ	.	.	.
8D\	6	8b-\	.	16ff\LL	.	.	.
.	.	.	.	16b-\JJ	.	.	.
8E-\	.	8b-\	.	16gg\LL	.	.	.
.	.	.	.	16b-\JJ	.	.	.
!	!	!	!	!LO:LB:g=original	!	!	!
8D\J	6	8b-\J	.	16ff\LL	.	.	.
.	.	.	.	16b-\JJ	.	.	.
4E-\	.	4b-\	.	16gg\LL	.	.	.
.	.	.	.	16ee-\	.	.	.
.	.	.	.	16dd\	.	.	.
.	.	.	.	16cc\JJ	.	.	.
4r	.	4r	.	16ee-\LL	.	.	.
.	.	.	.	16cc\	.	.	.
.	.	.	.	16dd\	.	.	.
.	.	.	.	16ee-\JJ	.	.	.
=4	=4	=4	=4	=4	=4	=4	=4
8D\L	.	8b-\L	.	16ff\LL	.	.	.
.	.	.	.	16b-\	.	.	.
8C\	6	8b-\	.	16ee-\	.	.	.
.	.	.	.	16b-\JJ	.	.	.
8D\	.	8b-\	.	16ff\LL	.	.	.
.	.	.	.	16b-\	.	.	.
8C\J	6	8b-\J	.	16ee-\	.	.	.
.	.	.	.	16b-\JJ	.	.	.
8D\L	.	4b-\	.	16ff\LL	.	.	.
.	.	.	.	16ee-\	.	.	.
8BB-\J	.	.	.	16dd\	.	.	.
.	.	.	.	16cc\JJ	.	.	.
8r	.	4r	.	16dd\LL	.	.	.
.	.	.	.	16b-\	.	.	.
8B-\	.	.	.	16cc\	.	.	.
.	.	.	.	16dd\JJ	.	.	.
!	!	!LO:LB:g=original	!	!	!	!	!
=5	=5	=5	=5	=5	=5	=5	=5
8c\L	.	8g/L	.	16ee-\LL	.	00r	.
.	.	.	.	16g\	.	.	.
8B-\	5	8g/	.	16dd\	.	.	.
.	.	.	.	16g\JJ	.	.	.
8c\	.	8g/	.	16ee-\LL	.	.	.
.	.	.	.	16g\	.	.	.
!LO:SIC:v:s=8A	!	!	!	!	!	!	!
8B-\J	6 5	8a/J	.	16ee-\	.	.	.
.	.	.	.	16f\JJ	.	.	.
!	!	!	!	!LO:TX:a:t=P:problem:mixed beam	!	!	!
4B-\	.	4f/	.	16dd\LL	.	.	.
.	.	.	.	16f/	.	.	.
.	.	.	.	16b-/	.	.	.
.	.	.	.	16dd/JJ	.	.	.
8r	.	16r	.	16ff\LL	.	.	.
.	.	16f/LL	.	16b-\	.	.	.
!LO:LB:g=original	!	!	!	!	!	!	!
8BB-/	.	16b-/	.	16dd\	.	.	.
.	.	16dd/JJ	.	16ff\JJ	.	.	.
!	!	!	!	!LO:LB:g=original	!	!	!
=6	=6	=6	=6	=6	=6	=6	=6
4BB-/	.	16ff\LL	.	16bb-\LL	.	.	.
.	.	16dd\	.	16ff\	.	.	.
.	.	16ff\	.	16bb-\	.	.	.
.	.	16dd\JJ	.	16ff\JJ	.	.	.
4E-\	6 5	16ee-\LL	.	16gg\LL	.	.	.
.	.	16ee-\	.	16ff\	.	.	.
.	.	16cc\	.	16ee-\	.	.	.
.	.	16b-\JJ	.	16dd\JJ	.	.	.
4F\	.	4a/	.	8cc\L	.	.	.
.	.	.	.	8f\J	.	.	.
4r	.	16r	.	16r	.	.	.
.	.	16dd\LL	.	16ff\LL	.	.	.
.	.	16dd\	.	16ff\	.	.	.
.	.	16ee-\JJ	.	16gg\JJ	.	.	.
=7	=7	=7	=7	=7	=7	=7	=7
!LO:TX:a:t=1	!	!	!	!	!	!	!
1r	.	16ee-\LL	.	16gg\LL	.	.	.
.	.	(16dd\	.	(16ff\	.	.	.
.	.	16dd\	.	16ff\	.	.	.
.	.	16cc\JJ)	.	16ee-\JJ)	.	.	.
.	.	16cc\LL	.	16ee-\LL	.	.	.
.	.	(16b-\	.	(16dd\	.	.	.
.	.	16b-\	.	16dd\	.	.	.
.	.	16cc\JJ)	.	16ee-\JJ)	.	.	.
.	.	16dd\LL	.	16ff\LL	.	.	.
.	.	(16cc\	.	16ee-\	.	.	.
.	.	16cc\	.	(16ee-\	.	.	.
.	.	16b-\JJ)	.	16dd\JJ)	.	.	.
.	.	16b-\LL	.	(16dd\LL	.	.	.
.	.	(16a\	.	16cc\	.	.	.
.	.	16a\	.	16cc\	.	.	.
.	.	16b-\JJ)	.	16dd\JJ)	.	.	.
!	!	!LO:LB:g=original	!	!	!	!	!
=8	=8	=8	=8	=8	=8	=8	=8
2r	.	16cc\LL	.	16ee-\LL	.	.	.
.	.	(16b-\	.	(16dd\	.	.	.
.	.	16b-\	.	16dd\	.	.	.
.	.	16cc\JJ)	.	16ee-\JJ)	.	.	.
.	.	16cc\LL	.	16ee-\LL	.	.	.
.	.	(16b-\	.	16dd\	.	.	.
.	.	16b-\	.	16dd\	.	.	.
.	.	16cc\JJ)	.	16ee-\JJ	.	.	.
4r	.	4.dd\	.	4.ff\	.	.	.
8r	.	.	.	.	.	.	.
*	*	*Xtuplet	*	*Xtuplet	*	*	*
8F\	.	24ee-\LL	.	48gg\LLL	.	.	.
.	.	.	.	(48ff\J	.	.	.
.	.	24cc\	.	24ee-\	.	.	.
.	.	24a\JJ	.	48dd\L	.	.	.
.	.	.	.	48cc\JJJ)	.	.	.
!	!	!	!	!LO:LB:g=original	!	!	!
=9	=9	=9	=9	=9	=9	=9	=9
8B-\L	.	8b-\L	.	16dd\LL	.	2rcc	.
.	.	.	.	16b-\	.	.	.
8E-\J	6 5	8b-\	.	16cc\	.	.	.
.	.	.	.	16dd\JJ	.	.	.
!LO:TX:a:t=P:problem:mixed beam	!	!	!	!	!	!	!
8F\L	.	8a\	.	8f/L	.	.	.
8FF/J	.	8f\J	.	8a/J	.	.	.
8BB-/L	.	4f/	.	4b-/	.	4r	.
8C/J	.	.	.	.	.	.	.
!	!	!	!	!	!	!LO:TX:b:t=P:problem:"P" przed kluczem	!
8D\L	.	4r	.	4r	.	8ff\	(P)lau-
8E-\J	.	.	.	.	.	8b-\	-de
=10	=10	=10	=10	=10	=10	=10	=10
8F\L	.	1rff	.	1rff	.	4a\	plau-
8E-\	.	.	.	.	.	.	.
8D\	.	.	.	.	.	4b-\	-de
8C\J	6	.	.	.	.	.	.
8E-\L	.	.	.	.	.	8r	.
8E-\	.	.	.	.	.	8gg\	plau-
8D\	6	.	.	.	.	8ff\	-de
8C\J	6	.	.	.	.	8ee-\	e-
=11	=11	=11	=11	=11	=11	=11	=11
8BB-\L	.	2rg	.	2rg	.	8dd\L	-xul-
8C\	.	.	.	.	.	8ee-\J	.
8D\	.	.	.	.	.	8ff\	-ta
8E-\J	.	.	.	.	.	8gg\	cor
8F\L	.	4r	.	4r	.	8a\	me-
8F\	.	.	.	.	.	8f/	-um
!	!	!LO:N:vis=16r	!	!	!	!	!
8D\	.	8r	.	16r	.	4r	.
.	.	.	.	16b-\LL	.	.	.
8BB-\J	.	8b-\	.	16dd\	.	.	.
.	.	.	.	16ff\JJ	.	.	.
=12	=12	=12	=12	=12	=12	=12	=12
8E-\L	.	8b-\L	.	16gg\LL	.	00r	.
.	.	.	.	16b-\	.	.	.
8D\	.	8b-\	.	16ff\	.	.	.
.	.	.	.	16b-\JJ	.	.	.
8E-\	.	8b-\	.	16gg\LL	.	.	.
.	.	.	.	16b-\	.	.	.
8D\J	.	8b-\J	.	16gg\	.	.	.
.	.	.	.	16b-\JJ	.	.	.
!LO:LB:g=original	!	!	!	!	!	!	!
4E-\	.	4b-\	.	16gg\LL	.	.	.
.	.	.	.	16ff\	.	.	.
.	.	.	.	16ee-\	.	.	.
.	.	.	.	16dd\JJ	.	.	.
4r	.	8r	.	16ee-\LL	.	.	.
.	.	.	.	16cc\	.	.	.
.	.	8b-\	.	16dd\	.	.	.
.	.	.	.	16ee-\JJ	.	.	.
=13	=13	=13	=13	=13	=13	=13	=13
8D\L	.	8b-\L	.	16ff\LL	.	.	.
.	.	.	.	16b-\	.	.	.
8C\	6	8b-\	.	16ee-\	.	.	.
.	.	.	.	16b-\JJ	.	.	.
8D\	.	8b-\	.	16ff\LL	.	.	.
.	.	.	.	16b-\	.	.	.
8C\J	6	8b-\J	.	16ee-\	.	.	.
.	.	.	.	16b-\JJ	.	.	.
!	!	!	!	!LO:LB:g=original	!	!	!
8D\L	.	4b-\	.	16ff\LL	.	.	.
.	.	.	.	16ee-\	.	.	.
8BB-\J	.	.	.	16dd\	.	.	.
.	.	.	.	16cc\JJ	.	.	.
8r	.	8r	.	16dd\LL	.	.	.
.	.	.	.	16b-\	.	.	.
!	!	!LO:LB:g=original	!	!	!	!	!
8B-\	.	8b-\	.	16cc\	.	.	.
.	.	.	.	16dd\JJ	.	.	.
=14	=14	=14	=14	=14	=14	=14	=14
8c\L	.	8g/L	.	16ee-\LL	.	.	.
.	.	.	.	16g\	.	.	.
8B-\	.	8g/	.	16dd\	.	.	.
.	.	.	.	16g\JJ	.	.	.
8c\	.	8g/	.	16ee-\LL	.	.	.
.	.	.	.	16g\	.	.	.
!LO:SIC:v:s=8A	!	!LO:TX:b:t=a	!	!	!	!	!
8B-\J	.	8a/J	.	16dd\	.	.	.
.	.	.	.	16g\JJ	.	.	.
4B-\	.	4f/	.	16dd\LL	.	.	.
.	.	.	.	16f\	.	.	.
.	.	.	.	16b-\	.	.	.
.	.	.	.	16dd\JJ	.	.	.
8r	.	16r	.	16ff\LL	.	.	.
.	.	16f/LL	.	16b-\	.	.	.
8BB-/	.	16b-/	.	16dd\	.	.	.
.	.	16dd/JJ	.	16ff\JJ	.	.	.
=15	=15	=15	=15	=15	=15	=15	=15
4BB-/	.	16ff\LL	.	16bb-\LL	.	.	.
.	.	16dd\	.	16ff\	.	.	.
.	.	16ff\	.	16bb-\	.	.	.
.	.	16dd\JJ	.	16ff\JJ	.	.	.
4E-\	.	16ee-\LL	.	16gg\LL	.	.	.
.	.	16dd\	.	16ff\	.	.	.
.	.	16cc\	.	16ee-\	.	.	.
.	.	16b-\JJ	.	16dd\JJ	.	.	.
4F\	.	4a\	.	8cc\L	.	.	.
.	.	.	.	8f\J	.	.	.
4r	.	16r	.	16r	.	.	.
.	.	16dd\LL	.	16ff\LL	.	.	.
.	.	16dd\	.	16ff\	.	.	.
.	.	16ee-\JJ	.	16gg\JJ	.	.	.
!	!	!	!	!LO:LB:g=original	!	!	!
=16	=16	=16	=16	=16	=16	=16	=16
!LO:TX:a:t=1	!	!	!	!	!	!	!
1r	.	16ee-\LL	.	(16gg\LL	.	0r	.
.	.	(16dd\	.	16ff\	.	.	.
.	.	16dd\	.	16ff\)	.	.	.
.	.	16cc\JJ)	.	16ee-\JJ	.	.	.
.	.	16cc\LL	.	(16ee-\LL	.	.	.
.	.	(16b-\	.	16dd\	.	.	.
.	.	16b-\	.	16dd\)	.	.	.
.	.	16cc\JJ)	.	16ee-\JJ	.	.	.
.	.	16dd\LL	.	16ff\LL	.	.	.
.	.	(16cc\	.	(16ee-\	.	.	.
.	.	16cc\	.	16ee-\	.	.	.
.	.	16b-\JJ)	.	16dd\JJ)	.	.	.
.	.	16b-\LL	.	16dd\LL	.	.	.
.	.	(16a\	.	(16cc\	.	.	.
.	.	16a\	.	16cc\	.	.	.
.	.	16b-\JJ)	.	16dd\JJ)	.	.	.
!	!	!LO:LB:g=original	!	!	!	!	!
=17	=17	=17	=17	=17	=17	=17	=17
2r	.	(16cc\LL	.	(16ee-\LL	.	.	.
.	.	16b-\	.	16dd\)	.	.	.
.	.	16b-\)	.	(16dd\	.	.	.
.	.	16cc\JJ	.	16ee-\JJ)	.	.	.
.	.	(16cc\LL	.	(16ee-\LL	.	.	.
.	.	16b-\	.	16dd\)	.	.	.
.	.	16b-\	.	(16dd\	.	.	.
.	.	16cc\JJ)	.	16ee-\JJ)	.	.	.
4r	.	4.dd\	.	4.ff\	.	.	.
8r	.	.	.	.	.	.	.
8F\	7	24ee-\LL	.	24gg\LL	.	.	.
.	.	24cc\	.	24ee-\	.	.	.
.	.	24a\JJ	.	24cc\JJ	.	.	.
=18	=18	=18	=18	=18	=18	=18	=18
8B-\L	.	8b-\L	.	16dd\LL	.	2r	.
.	.	.	.	16b-\	.	.	.
8E-\J	6 5	8b-\	.	16cc\	.	.	.
.	.	.	.	16dd\JJ	.	.	.
!LO:TX:a:t=P:problem:mixed beam	!	!	!	!	!	!	!
8F\L	.	8a\	.	8f/L	.	.	.
!	!	!LO:SIC:v:s=8f	!	!	!	!	!
8FF/J	.	8g\J	.	8a/J	.	.	.
!	!	!	!	!	!	!LO:LB:g=original	!
8BB-/L	.	4ryy	.	4b-/	.	4r	.
8C/	.	.	.	.	.	.	.
8D/	.	4r	.	4r	.	8ff\	Plau-
8E-/J	.	.	.	.	.	8b-\	-de
!LO:LB:g=original	!	!	!	!	!	!	!
=19	=19	=19	=19	=19	=19	=19	=19
*	*	*	*	*	*	*	*ij
8F\L	.	00r	.	00r	.	4a\	plau-
8E-\	.	.	.	.	.	.	.
8D\	6	.	.	.	.	4b-\	-de
*	*	*	*	*	*	*	*Xij
8BB-\J	.	.	.	.	.	.	.
8E-\L	.	.	.	.	.	8r	.
8E-\	.	.	.	.	.	8gg\	plau-
8D\	.	.	.	.	.	8ff\	-de
8BB-\J	.	.	.	.	.	8ee-\	e-
=20	=20	=20	=20	=20	=20	=20	=20
8BB-/L	.	.	.	.	.	8dd\L	-xul-
8C/	.	.	.	.	.	8ee-\J	.
8D/	.	.	.	.	.	8ff\	-ta
8E-/J	.	.	.	.	.	8gg\	cor
4F\	.	.	.	.	.	8a\	me-
.	.	.	.	.	.	8f/	-um
4r	.	.	.	.	.	8cc\	ad-
.	.	.	.	.	.	8cc\	-ſunt
=21	=21	=21	=21	=21	=21	=21	=21
4r	.	.	.	.	.	8ff\L	gra-
!	!	!	!	!	!	!LO:TX:a:t=P:problem:♮ above	!
.	.	.	.	.	.	16een\L	.
.	.	.	.	.	.	16dd\JJ	.
8F\L	.	.	.	.	.	8cc\L	.
8F\J	.	.	.	.	.	16b-\L	.
.	.	.	.	.	.	16a\JJ	.
8B-\L	.	.	.	.	.	8dd\L	.
16A\L	.	.	.	.	.	16cc\L	.
16G\JJ	.	.	.	.	.	16b-\JJ	.
8A\L	6	.	.	.	.	8cc\L	.
!LO:SIC:v:s=8En	!	!	!	!	!	!LO:SIC:v:s=8gg	!
8E-\J	.	.	.	.	.	8ff\J	.
!	!	!	!	!	!	!LO:LB:g=original	!
=22	=22	=22	=22	=22	=22	=22	=22
!LO:SIC:v:s=4F	!	!	!	!	!	!	!
4G\	.	.	.	.	.	8ff\L	.
.	.	.	.	.	.	16b-\L	.
.	.	.	.	.	.	16a\JJ	.
8r	.	.	.	.	.	8b-\L	.
8C/	.	.	.	.	.	16a\L	.
.	.	.	.	.	.	16g\JJ	.
8F\L	.	.	.	.	.	8a\	.
8G\	.	.	.	.	.	8b-\	-ta
8A\	6	.	.	.	.	8cc\	ad-
8B-\J	.	.	.	.	.	8dd\	-ſunt
=23	=23	=23	=23	=23	=23	=23	=23
8c\L	#n	2rg	.	2rf	.	8een\	gra-
8F\J	.	.	.	.	.	8ff\	-ta
!LO:TX:a:t=P:problem:mixed beam	!	!	!	!	!	!	!
8c\L	.	.	.	.	.	8a\	gau-
8C/J	4	.	.	.	.	16g\LL	-di-
.	3	.	.	.	.	16f\JJ	.
!	!	!	!	!LO:LB:g=original	!	!	!
!	!	!	!	!LO:TX:a:t=P:problem:mixed beam	!	!	!
8F\L	.	8a/L	.	8ff\L	.	4f/	-a
8F\	.	16a/L	.	16f/L	.	.	.
.	.	16g/JJ	.	16g/JJ	.	.	.
8F\	.	8f/L	.	16a\LL	.	4r	.
.	.	.	.	16b-\	.	.	.
8F\J	.	8a/J	.	16cc\	.	.	.
.	.	.	.	16dd\JJ	.	.	.
!LO:LB:g=original	!	!	!	!	!	!	!
=24	=24	=24	=24	=24	=24	=24	=24
!	!	!	!	!LO:TX:a:t=P:problem:mixed beam	!	!LO:TX:a:t=1	!
4En\	.	4g/	.	8cc\L	.	1r	.
.	.	.	.	16c/L	.	.	.
.	.	.	.	16d/JJ	.	.	.
8r	.	8r	.	16fn/LL	.	.	.
.	.	.	.	16g/	.	.	.
8E\L	.	8g/	.	16a/	.	.	.
.	.	.	.	16b-/JJ	.	.	.
8D\	.	8f/L	.	16b-\LL	.	.	.
.	.	.	.	16a\	.	.	.
8D\J	6	8f/	.	16b-\	.	.	.
.	.	.	.	16cc\JJ	.	.	.
8En\L	.	8g/	.	16b-\LL	.	.	.
.	.	.	.	16dd\	.	.	.
8E\J	6 5	8g/J	.	16cc\	.	.	.
.	.	.	.	16b-\JJ	.	.	.
=25	=25	=25	=25	=25	=25	=25	=25
!LO:SIC:v:s=4F	!	!	!	!	!	!	!
4G\	.	4f/	.	8a/L	.	4r	.
.	.	.	.	8f/J	.	.	.
4r	.	4r	.	4r	.	8cc\	plau-
.	.	.	.	.	.	8f/	-de
*	*	*	*	*	*	*	*ij
8r	.	2ryy	.	2rg	.	4en/	plau-
8c\L	#n	.	.	.	.	.	.
8B-\	6	.	.	.	.	4f/	-de
*	*	*	*	*	*	*	*Xij
8A\J	.	.	.	.	.	.	.
=26	=26	=26	=26	=26	=26	=26	=26
!LO:TX:a:t=P:problem:mixed beam	!	!	!	!	!	!	!
8BB-/L	.	0r	.	0r	.	8r	.
8B-\	.	.	.	.	.	8dd\	plau-
8A\	6	.	.	.	.	8cc\	-de
8G\J	6	.	.	.	.	8b-\	e-
4F\	.	.	.	.	.	8a\	-xul-
.	.	.	.	.	.	8f/	-ta
4r	.	.	.	.	.	8ff\	plau-
.	.	.	.	.	.	8b-\	.
=27	=27	=27	=27	=27	=27	=27	=27
8r	.	.	.	.	.	4a\	-de
8F\L	.	.	.	.	.	.	.
8D\	6	.	.	.	.	4b-\	.
8BB-\J	.	.	.	.	.	.	.
!	!	!	!	!	!	!LO:LB:g=original	!
8E-\L	.	.	.	.	.	8r	.
8E-\J	.	.	.	.	.	8gg\	plau-
8D\L	6	.	.	.	.	8ff\	-de
8C\J	.	.	.	.	.	8ee-\	e-
!	!	!LO:LB:g=original	!	!	!	!	!
=28	=28	=28	=28	=28	=28	=28	=28
8BB-/L	.	2r	.	2rdd	.	(8dd\	-xul-
8C/	.	.	.	.	.	8ee-\	.
8D/	.	.	.	.	.	8ff\)	-ta
8E-/J	.	.	.	.	.	16ee-\LL	cor
.	.	.	.	.	.	16dd\JJ	.
4F\	.	4r	.	4r	.	4cc\	.
4r	.	8f/L	.	8dd\L	.	8ff\	ad-
!	!	!	!LO:DY:b:t=pia	!	!	!	!
.	.	8f/J	p	8dd\J	.	8ff\	-ſunt
=29	=29	=29	=29	=29	=29	=29	=29
!LO:TX:a:t=2	!	!	!	!	!	!	!
0r	.	8f'/L	.	(16ee-\LL	.	(16gg\LL	gra-
.	.	.	.	16dd\	.	16ff\)	.
.	.	8f'/	.	16dd\)	.	(16ff\	.
.	.	.	.	16cc\JJ	.	16ee-\JJ)	.
!	!	!	!	!LO:LB:g=original	!	!	!
.	.	8f'/	.	(16dd\LL	.	(16ee-\LL	.
.	.	.	.	16cc\	.	16dd\)	.
.	.	8f'/J	.	16b-\	.	(16dd\	.
.	.	.	.	16cc\JJ)	.	16ee-\JJ)	.
.	.	8f'/L	.	16dd\LL	.	16ff\LL	.
.	.	.	.	(16cc\	.	[16ee-\	.
.	.	8f'/	.	16cc\	.	16ee-\]	.
.	.	.	.	16b-\JJ)	.	16dd\JJ	.
.	.	8f'/	.	(16b-\LL	.	16dd\LL	.
.	.	.	.	16a\	.	[16cc\	.
.	.	8f'/J	.	16a\)	.	16cc\]	.
.	.	.	.	16b-\JJ	.	16dd\JJ	.
=30	=30	=30	=30	=30	=30	=30	=30
.	.	8a/L	.	(16cc\LL	.	(16ee-\LL	.
.	.	.	.	16b-\	.	16dd\)	.
.	.	8a/	.	16b-\	.	(16dd\	.
.	.	.	.	16cc\JJ)	.	16ee-\JJ)	.
.	.	8a/	.	16cc\LL	.	16ee-\LL	.
.	.	.	.	16b-\	.	[16dd\	.
.	.	8f/J	.	16b-\	.	16dd\]	.
.	.	.	.	16cc\JJ	.	16ee-\JJ	.
!	!	!	!	!	!	!LO:LB:g=original	!
.	.	4.f/	.	4.dd\	.	4.ff\	.
*	*	*	*	*	*	*Xtuplet	*
.	.	8f/	.	24ee-\LL	.	24gg\LL	.
.	.	.	.	24cc\	.	24ee-\	.
.	.	.	.	24g\JJ	.	24cc\JJ	.
=31	=31	=31	=31	=31	=31	=31	=31
2r	.	8b-/L	.	8b-/L	.	(16dd\LL	-ta
.	.	.	.	.	.	16b-\JJ)	.
.	.	8e-/J	.	8e-X/J	.	(16cc\LL	gau-
.	.	.	.	.	.	16dd\JJ)	.
.	.	4f/	.	4f/	.	8.a\	.
.	.	.	.	.	.	16a\	-di-
!LO:LB:g=original	!	!	!	!	!	!	!
8BB-/L	.	4B-/	.	4B-/	.	4b-\	-a
8C/	.	.	.	.	.	.	.
8D/	.	4r	.	4r	.	8ff\	plau-
8E-/J	.	.	.	.	.	8b-\	-de
=32	=32	=32	=32	=32	=32	=32	=32
!	!	!LO:TX:a:t=P:problem:brak taktu	!	!LO:TX:b:t=VerteCito	!	!	!
*	*	*	*	*	*	*	*ij
4F\	.	1ryy	.	4r	.	8a\	plau-
.	.	.	.	.	.	16g\LL	-de
*	*	*	*	*	*	*	*Xij
.	.	.	.	.	.	16f\JJ	.
!	!	!	!	!LO:PB:g=original	!	!	!
8D\L	.	.	.	8ff\L	.	4r	.
8E-\J	.	.	.	8b-\J	.	.	.
4F\	.	.	.	8a/L	.	4r	.
.	.	.	.	16g/L	.	.	.
.	.	.	.	16f/JJ	.	.	.
8D\L	6	.	.	4r	.	8ff\	plau-
8E-\J	.	.	.	.	.	16b-\	-de
.	.	.	.	.	.	16b-\	e-
=33	=33	=33	=33	=33	=33	=33	=33
4F\	.	4r	.	4r	.	8a\	-xul-
.	.	.	.	.	.	8f/	-ta
8D\L	6	8b-/L	.	8ff\L	.	4r	.
8E-\J	.	8g/J	.	8b-\J	.	.	.
!	!	!	!LO:DY:b:t=piano&colon;	!	!	!	!
4F\	.	4f/	p	8a/L	.	4r	.
.	.	.	.	16g/L	.	.	.
.	.	.	.	16f/JJ	.	.	.
4r	.	8f/L	.	8dd\L	.	8ff\	ad-
.	.	8f/J	.	8dd\J	.	8ff\	-ſunt
=34	=34	=34	=34	=34	=34	=34	=34
0r	.	8f/L	.	(16ee-\LL	.	16gg\LL	gra-
.	.	.	.	16dd\	.	[16ff\	.
.	.	8f/	.	16dd\	.	16ff\]	.
.	.	.	.	16cc\JJ)	.	16ee-\JJ	.
.	.	8f/	.	16cc\LL	.	16ee-\LL	.
.	.	.	.	(16b-\	.	[16dd\	.
.	.	8f/J	.	16b-\	.	16dd\]	.
.	.	.	.	16cc\JJ)	.	16ee-\JJ	.
!	!	!LO:LB:g=original	!	!	!	!	!
.	.	4.f/	.	4.dd\	.	4.ff\	.
!	!	!	!	!	!	!LO:LB:g=original	!
.	.	16r	.	24cc\LL	.	24ee-\LL	.
.	.	.	.	(24cc\	.	24dd\	.
.	.	16f/	.	.	.	.	.
.	.	.	.	24b-\JJ)	.	24cc\JJ	.
=35	=35	=35	=35	=35	=35	=35	=35
.	.	8f/L	.	(16b-\LL	.	16dd\LL	.
.	.	.	.	16a\	.	[16cc\	.
.	.	8f/	.	16a\	.	16cc\]	.
.	.	.	.	16b-\JJ)	.	16dd\JJ	.
.	.	8f/	.	(16b-\LL	.	16dd\LL	.
.	.	.	.	16a\	.	[16cc\	.
.	.	8f/J	.	16a\	.	16cc\]	.
.	.	.	.	16b-\JJ)	.	16dd\JJ	.
.	.	4.a/	.	4.cc\	.	4.ee-\	.
.	.	16r	.	24ee-\LL	.	24gg\LL	.
.	.	.	.	24dd\	.	24ff\	.
.	.	16a/	.	.	.	.	.
.	.	.	.	24cc\JJ	.	24ee-\JJ	.
!	!	!	!	!LO:LB:g=original	!	!	!
=36	=36	=36	=36	=36	=36	=36	=36
2r	.	8b-/L	.	8b-/L	.	16dd\LL	.
.	.	.	.	.	.	16cc\	.
.	.	8e-/J	.	8e-X/J	.	16b-\	.
.	.	.	.	.	.	16cc\JJ	-ta
.	.	4f/	.	4f/	.	8.a\	gau-
.	.	.	.	.	.	16a\	-di-
4r	.	4B-/	.	4B-/	.	8b-\	-a
.	.	.	.	.	.	16ff\LL	ad-
.	.	.	.	.	.	16ee-\JJ	.
8B-\L	.	4r	.	4r	.	16dd\LL	-sunt
.	.	.	.	.	.	(16cc\	.
8F\J	.	.	.	.	.	16b-\)	.
.	.	.	.	.	.	16a\JJ	.
=37	=37	=37	=37	=37	=37	=37	=37
!LO:TX:a:t=P:problem:mixed beam	!	!	!	!	!	!	!
8G\L	.	2r	.	2r	.	8b-\	gra-
8E-\	6	.	.	.	.	8cc\	-ta
8F\	.	.	.	.	.	8f/	gau-
8FF/J	.	.	.	.	.	8a\	-di-
!LO:TX:a:t=P:problem:mixed beam	!	!	!	!LO:TX:a:t=P:problem:mixed beam	!	!	!
8BB-/L	.	8dd\L	.	8bb-\L	.	4b-\	-a
8B-\	.	16dd\L	.	16b-/L	.	.	.
!	!	!	!	!	!LO:DY:a:t=pia	!	!
.	.	16cc\JJ	.	16cc/JJ	p	.	.
8B-\	.	8b-\L	.	16dd\LL	.	4r	.
.	.	.	.	16ee-\	.	.	.
8B-\J	.	8dd\J	.	16ff\	.	.	.
.	.	.	.	16gg\JJ	.	.	.
=38	=38	=38	=38	=38	=38	=38;;	=38
!	!	!	!	!LO:TX:a:t=P:problem:mixed beam	!	!	!
4A\	6	8cc\L	.	8ff\L	.	00r	.
.	.	16cc\L	.	16f/L	.	.	.
.	.	16b-\JJ	.	16g/JJ	.	.	.
8r	.	8a\L	.	16a\LL	.	.	.
.	.	.	.	16b-\	.	.	.
8A\	.	8cc\J	.	16cc\	.	.	.
.	.	.	.	16dd\JJ	.	.	.
8G\L	.	8b-\L	.	16ee-\LL	.	.	.
.	.	.	.	16dd\	.	.	.
8G\J	6	8b-\	.	16ee-\	.	.	.
.	.	.	.	16ff\JJ	.	.	.
8A\L	.	8cc\	.	16ee-\LL	.	.	.
.	.	.	.	16gg\	.	.	.
8A\J	6 5	8cc\J	.	16ff\	.	.	.
.	.	.	.	16ee-\JJ	.	.	.
!LO:LB:g=original	!	!	!	!	!	!	!
=39	=39	=39	=39	=39	=39	=39	=39
!LO:TX:a:t=P:problem:mixed beam	!	!	!	!	!	!	!
8B-\L	.	16b-\LL	.	8dd\L	.	.	.
.	.	16cc\	.	.	.	.	.
16BB-/L	.	16dd\	.	8b-\J	.	.	.
16C/JJ	.	16ee-\JJ	.	.	.	.	.
!	!	!LO:LB:g=original	!	!	!	!	!
8D/L	.	8ff\L	.	16r	.	.	.
.	.	.	.	16b-\LL	.	.	.
8BB-/J	.	8b-\J	.	16dd\	.	.	.
.	.	.	.	16ff\JJ	.	.	.
!	!	!	!	!LO:LB:g=original	!	!	!
8E-\L	.	8b-\L	.	16gg\LL	.	.	.
.	.	.	.	16b-\	.	.	.
8D\	6	8b-\	.	16ff\	.	.	.
.	.	.	.	16b-\JJ	.	.	.
8E-\	.	8b-\	.	16gg\LL	.	.	.
.	.	.	.	16b-\	.	.	.
8D\J	6	8b-\J	.	16ff\	.	.	.
.	.	.	.	16b-\JJ	.	.	.
=40	=40	=40	=40	=40	=40	=40	=40
4E-\	.	4b-/	.	16gg\LL	.	.	.
.	.	.	.	16ff\	.	.	.
.	.	.	.	16ee-\	.	.	.
.	.	.	.	16dd\JJ	.	.	.
4r	.	4r	.	16ee-\LL	.	.	.
.	.	.	.	16cc\	.	.	.
.	.	.	.	16dd\	.	.	.
.	.	.	.	16ee-\JJ	.	.	.
8D/L	.	8b-\L	.	16ff\LL	.	.	.
.	.	.	.	16b-\	.	.	.
8C/	6	8b-\	.	16ee-\	.	.	.
.	.	.	.	16b-\JJ	.	.	.
8D/	.	8b-\	.	16ff\LL	.	.	.
.	.	.	.	16b-\	.	.	.
8C/J	6	8b-\J	.	16ee-\	.	.	.
.	.	.	.	16b-\JJ	.	.	.
=41	=41	=41	=41	=41	=41	=41	=41
4D/	.	4b-\	.	16ff\LL	.	.	.
.	.	.	.	16ee-\	.	.	.
.	.	.	.	16dd\	.	.	.
.	.	.	.	16cc\JJ	.	.	.
8r	.	8r	.	16dd\LL	.	.	.
.	.	.	.	16b-\	.	.	.
8D/	.	8b-/	.	16cc\	.	.	.
.	.	.	.	16dd\JJ	.	.	.
8C/L	.	8g/L	.	16ee-\LL	.	.	.
.	.	.	.	16g\	.	.	.
8BB-/	6	8g/	.	16dd\	.	.	.
.	.	.	.	16g\JJ	.	.	.
!	!	!	!	!LO:LB:g=original	!	!	!
8C/	.	8g/	.	16ee-\LL	.	.	.
.	.	.	.	16g\	.	.	.
!	!	!LO:SIC:v:s=8g	!	!	!	!	!
8BB-/J	6 5	8a/J	.	16dd\	.	.	.
.	.	.	.	16g\JJ	.	.	.
=42	=42	=42	=42	=42	=42	=42	=42
!	!	!	!	!LO:TX:a:t=P:problem:mixed beam	!	!	!
4BB-/	.	4f/	.	16dd\LL	.	00r	.
.	.	.	.	16f/	.	.	.
.	.	.	.	16b-/	.	.	.
.	.	.	.	16dd/JJ	.	.	.
8r	.	16r	.	16ff\LL	.	.	.
.	.	16f/LL	.	16b-\	.	.	.
8BB-/	.	16b-/	.	16dd\	.	.	.
!	!	!LO:TX:a:t=P:problem:nadliczbowa kreska taktowa	!	!	!	!	!
.	.	16cc/JJ	.	16ff\JJ	.	.	.
!LO:TX:a:t=P:problem:mixed beam	!	!	!	!	!	!	!
8BB-/L	.	16ff\LL	.	16bb-\LL	.	.	.
.	.	16dd\	.	16ff\	.	.	.
8B-\J	.	16ff\	.	16bb-\	.	.	.
.	.	16dd\JJ	.	16ff\JJ	.	.	.
4E-\	6 5	16ee-\LL	.	16gg\LL	.	.	.
.	.	16dd\	.	16ff\	.	.	.
.	.	16cc\	.	16ee-\	.	.	.
.	.	16b-\JJ	.	16dd\JJ	.	.	.
=43	=43	=43	=43	=43	=43	=43	=43
!LO:TX:a:t=P:problem:mixed beam	!	!	!	!	!	!	!
8F\L	.	4a/	.	8cc\L	.	.	.
8FF/J	.	.	.	8f\J	.	.	.
4r	.	16r	.	16r	.	.	.
!	!	!LO:LB:g=original	!	!	!	!	!
.	.	(16dd\LL	.	16ff\LL	.	.	.
.	.	16dd\	.	16ff\	.	.	.
.	.	16ee-\JJ)	.	16gg\JJ	.	.	.
2r	.	(16ee-\LL	.	16gg\LL	.	.	.
.	.	16dd\	.	(16ff\	.	.	.
.	.	16dd\	.	16ff\	.	.	.
.	.	16cc\JJ)	.	16ee-\JJ)	.	.	.
.	.	(16cc\LL	.	16ee-\LL	.	.	.
.	.	16b-\	.	(16dd\	.	.	.
.	.	16b-\	.	16dd\	.	.	.
.	.	16cc\JJ)	.	16ee-\JJ)	.	.	.
!	!	!	!	!LO:LB:g=original	!	!	!
=44	=44	=44	=44	=44	=44	=44	=44
1r	.	4.dd\	.	4.ff\	.	.	.
.	.	(24cc\LL	.	24ee-\LL	.	.	.
.	.	24cc\	.	24ee-\	.	.	.
.	.	24b-\JJ)	.	24dd\JJ	.	.	.
.	.	(16b-\LL	.	16dd\LL	.	.	.
.	.	16a\	.	(16cc\	.	.	.
.	.	16a\	.	16cc\	.	.	.
.	.	16b-\JJ)	.	16dd\JJ)	.	.	.
.	.	(16b-\LL	.	16dd\LL	.	.	.
.	.	16a\	.	(16cc\	.	.	.
.	.	16a\	.	16cc\	.	.	.
.	.	16b-\JJ)	.	16dd\JJ)	.	.	.
!LO:LB:g=original	!	!	!	!	!	!	!
=45	=45	=45	=45	=45	=45	=45	=45
4r	.	4.cc\	.	4.ee-\	.	.	.
8r	.	.	.	.	.	.	.
8F\	.	24ee-\LL	.	24gg\LL	.	.	.
.	.	24dd\	.	24ff\	.	.	.
.	.	24cc\JJ	.	24ee-\JJ	.	.	.
!LO:TX:a:t=P:problem:mixed beam	!	!	!	!	!	!	!
8B-\L	.	4b-\	.	16dd\LL	.	.	.
.	.	.	.	16cc\	.	.	.
8BB-/J	.	.	.	16dd\	.	.	.
.	.	.	.	16aa\JJ	.	.	.
!	!	!LO:TX:b:t=verteCito.	!	!	!	!	!
8r	.	4r	.	16bb-\LL	.	.	.
.	.	.	.	16b-\	.	.	.
8BB-/	.	.	.	16dd\	.	.	.
.	.	.	.	16ff\JJ	.	.	.
!	!	!LO:LB:g=original	!	!	!	!	!
=46	=46	=46	=46	=46	=46	=46	=46
*	*	*	*	*2\right	*	*	*
4BB-/	.	16r	.	2bb-\	.	1r	.
.	.	16b-\LL	.	.	.	.	.
.	.	16dd\	.	.	.	.	.
.	.	16ff\JJ	.	.	.	.	.
4r	.	16bb-\LL	.	.	.	.	.
.	.	16b-\	.	.	.	.	.
.	.	16dd\	.	.	.	.	.
.	.	16ff\JJ	.	.	.	.	.
!	!	!LO:TX:a:t=P:problem:mixed beam	!	!	!	!	!
16r	.	16bb-\LL	.	16r	.	.	.
16BB-/LL	.	16B-/	.	16B-/LL	.	.	.
16D/	.	16d/	.	16d/	.	.	.
16F/JJ	.	16f/JJ	.	16f/JJ	.	.	.
!LO:TX:a:t=P:problem:mixed beam	!	!	!	!	!	!	!
!LO:SIC:v:s=16B-	!	!	!	!	!	!	!
16A\LL	.	16b-/LL	.	16b-/LL	.	.	.
16BB-/	.	16B-/	.	16b-/	.	.	.
16D/	.	16d/	.	16d/	.	.	.
16F/JJ	.	16f/JJ	.	16f/JJ	.	.	.
!	!	!	!	!LO:LB:g=original	!	!LO:LB:g=original	!
=47	=47	=47	=47	=47	=47	=47	=47
!LO:TX:a:t=P:problem:mixed beam	!	!	!	!	!	!	!
16B-\LL	.	8b-/L	.	8b-/L	.	2re	.
16D/	.	.	.	.	.	.	.
16E-/	.	16d/L	.	16d/L	.	.	.
16F/JJ	.	16e-/JJ	.	16e-/JJ	.	.	.
!LO:TX:a:t=P:problem:mixed beam	!	!	!	!	!	!	!
8F\L	.	4f/	.	8f/L	.	.	.
8FF;;/J	.	.	.	8f/J	.	.	.
!	!	!LO:TX:a:t=Finis	!	!	!	!	!
4BB-;</	.	4B-;</	.	4B-;</	.	4r	.
!	!	!	!	!LO:TX:a:t=Finis	!	!	!
8GG/L	.	4r	.	4r	.	8dd\	hic
8C/J	.	.	.	.	.	8ee-\	la-
=48	=48	=48	=48	=48	=48	=48	=48
8BB-/L	.	2r	.	2r	.	8dd\	-ten-
8C/J	.	.	.	.	.	8g/	-tem
8D/L	.	.	.	.	.	8f#X/	ha-
8DD/J	.	.	.	.	.	16g\LL	-bes
.	.	.	.	.	.	16a\JJ	.
4GG/	.	8r	.	16r	.	8b-\	De-
.	.	.	.	16g\LL	.	.	.
.	.	8b-\L	.	16b-\	.	8g\	-um
.	.	.	.	16dd\JJ	.	.	.
!	!	!	!	!LO:TX:a:t=P:problem:mixed beam	!	!	!
8r	.	8b-\	.	16gg\LL	.	4r	.
.	.	.	.	16g/	.	.	.
8G\	.	8b-\J	.	16b-/	.	.	.
.	.	.	.	16dd/JJ	.	.	.
=49	=49	=49	=49	=49	=49	=49	=49
4GG/	.	16r	.	2gg\	.	0r	.
.	.	16g/LL	.	.	.	.	.
.	.	16b-/	.	.	.	.	.
.	.	16dd/JJ	.	.	.	.	.
!	!	!LO:LB:g=original	!	!	!	!	!
!	!	!LO:TX:a:t=P:problem:mixed beam	!	!	!	!	!
4r	.	16gg\LL	.	.	.	.	.
.	.	16g/	.	.	.	.	.
.	.	16b-/	.	.	.	.	.
.	.	16dd/JJ	.	.	.	.	.
!LO:TX:b:t=VerteCito	!	!	!	!	!	!	!
8r	.	8gg\L	.	16r	.	.	.
.	.	.	.	16g\LL	.	.	.
!LO:PB:g=original	!	!	!	!	!	!	!
8G\L	.	8b-\	.	16b-\	.	.	.
.	.	.	.	16dd\JJ	.	.	.
!	!	!	!	!LO:TX:a:t=P:problem:mixed beam	!	!	!
8G\	.	8b-\	.	16gg\LL	.	.	.
.	.	.	.	16g/	.	.	.
8G\J	.	8b-\J	.	16b-/	.	.	.
.	.	.	.	16dd/JJ	.	.	.
=50	=50	=50	=50	=50	=50	=50	=50
!LO:TX:a:t=P:problem:mixed beam	!	!	!	!	!	!	!
8C/L	.	8r	.	8ee-\L	.	.	.
8c\J	.	8g/L	.	8cc\J	.	.	.
!LO:TX:a:t=P:problem:mixed beam	!	!	!	!	!	!	!
8c\L	.	8g/	.	8cc\L	.	.	.
8C/J	.	8g/J	.	16a\L	.	.	.
.	.	.	.	16a\JJ	.	.	.
4D/	#	8a/L	.	16f#X/LL	.	.	.
.	.	.	.	16e-/	.	.	.
.	.	8a/	.	16f#/	.	.	.
.	.	.	.	16g/JJ	.	.	.
!	!	!	!	!LO:TX:a:t=P:problem:mixed beam	!	!	!
4r	.	8a/	.	16cc\LL	.	.	.
.	.	.	.	16e-/	.	.	.
.	.	8a/J	.	16f#/	.	.	.
.	.	.	.	16a/JJ	.	.	.
=51	=51	=51	=51	=51	=51	=51	=51
8r	.	8r	.	8.cc\L	.	1r	.
8D\L	7 #	8a/L	.	.	.	.	.
.	.	.	.	16b-\Jk	.	.	.
!	!	!	!	!LO:LB:g=original	!	!	!
8G\	.	8g/	.	(16b-/LL	.	.	.
.	.	.	.	16a/)	.	.	.
!	!	!LO:TX:b:t=P:problem:# below	!	!	!	!	!
8D\J	#	8f#X/J	.	(16a/	.	.	.
.	.	.	.	16b-/JJ)	.	.	.
8E-\L	.	8g/L	.	16g/LL	.	.	.
.	.	.	.	16f#X/	.	.	.
8C\J	6 5	8g/J	.	16g/	.	.	.
.	.	.	.	16a/JJ	.	.	.
8D/L	.	8g/L	.	8b-/L	.	.	.
!	!	!LO:TX:b:t=P:problem:# below	!	!	!	!	!
8DD/J	4 #	8f#X/J	.	16a/L	.	.	.
.	3	.	.	16g/JJ	.	.	.
=52	=52	=52	=52	=52	=52	=52	=52
8GG/L	.	4g/	.	4g/	.	4r	.
8AA/	.	.	.	.	.	.	.
8BB-/	6	4r	.	4r	.	8dd\	hic
8C/J	.	.	.	.	.	8ee-\	la-
8BB-/L	6	2r	.	2rdd	.	8dd\	-ten-
8C/J	.	.	.	.	.	8g/	-te(m)
8D/L	#	.	.	.	.	8f#X/	ha-
8DD/J	.	.	.	.	.	16g\LL	-bes
.	.	.	.	.	.	16a\JJ	.
=53	=53	=53	=53	=53	=53	=53	=53
4GG/	.	0r	.	0r	.	8b-\	De-
.	.	.	.	.	.	8g\	-um
8G\L	#	.	.	.	.	8g\	hic
8F\J	6 4	.	.	.	.	16a\LL	ſo-
.	.	.	.	.	.	16bn\JJ	.
!	!	!	!	!	!	!LO:LB:g=original	!
8E-\L	#	.	.	.	.	4cc\	-la-
.	6	.	.	.	.	.	.
8D\J	6\	.	.	.	.	.	.
8E-\L	6	.	.	.	.	8cc\	-re
8BBn\J	6	.	.	.	.	8dd\	so-
=54	=54	=54	=54	=54	=54	=54	=54
8C/L	.	.	.	.	.	8ee-\L	-la-
8BBn/J	6	.	.	.	.	8dd\J	.
!LO:TX:a:t=P:problem:mixed beam	!	!	!	!	!	!	!
8C/L	.	.	.	.	.	8ee-\	-ré
8G\J	.	.	.	.	.	8bn\	maeſ-
!LO:LB:g=original	!	!	!	!	!	!	!
8A-X\L	.	.	.	.	.	8cc\	-ta
8F\J	-	.	.	.	.	8dd\	sus-
!LO:TX:a:t=P:problem:mixed beam	!	!	!	!	!	!	!
8G\L	3	.	.	.	.	8.g\	-pi-
8GG/J	.	.	.	.	.	.	.
.	.	.	.	.	.	16bn\	-ri-
=55	=55	=55	=55	=55	=55	=55	=55
!LO:TX:a:t=P:problem:mixed beam	!	!	!	!	!	!	!
8C/L	.	8ee-\L	.	8ccc\L	.	4cc\	-a
8c\	.	16ee-\L	.	16cc\L	.	.	.
.	.	16dd\JJ	.	16dd\JJ	.	.	.
8c\	.	8cc\L	.	16ee-\LL	.	4r	.
.	.	.	.	16ff\	.	.	.
8c\J	.	8ee-\J	.	16gg\	.	.	.
.	.	.	.	16aa\JJ	.	.	.
!LO:SIC:v:s=4Bn	!	!LO:LB:g=original	!	!LO:TX:a:t=P:problem:mixed beam	!	!	!
4B#X\	6	4dd\	.	8gg\L	.	2r	.
.	.	.	.	16g/L	.	.	.
.	.	.	.	16a/JJ	.	.	.
8r	.	8r	.	16bn\LL	.	.	.
.	.	.	.	16cc\	.	.	.
!LO:SIC:v:s=8Bn	!	!	!	!	!	!	!
8B#\	.	8dd\	.	16dd\	.	.	.
.	.	.	.	16ee-\JJ	.	.	.
=56	=56	=56	=56	=56	=56	=56	=56
8A\L	.	8cc\L	.	16ff\LL	.	2r	.
.	.	.	.	16ee-\	.	.	.
8A\J	6	8cc\	.	16ff\	.	.	.
.	.	.	.	16gg\JJ	.	.	.
!LO:SIC:v:s=8Bn	!	!	!	!	!	!	!
8B#X\L	.	8dd\	.	16ff\LL	.	.	.
.	.	.	.	16aa-X\	.	.	.
!LO:SIC:v:s=8Bn	!	!	!	!	!	!	!
8B#\J	.	8dd\J	.	16gg\	.	.	.
.	.	.	.	16ff\JJ	.	.	.
4c\	.	4cc\	.	8ee-\L	.	4r	.
.	.	.	.	8cc\J	.	.	.
!	!	!	!	!LO:LB:g=original	!	!	!
8c\L	.	4r	.	4r	.	8ee-\	hic
!LO:SIC:v:s=8Bn	!	!	!	!	!	!	!
8B#X\J	6	.	.	.	.	8dd\	ſo-
=57	=57	=57	=57	=57	=57	=57	=57
4c\	.	4r	.	4r	.	8ee-\	-la-
.	.	.	.	.	.	8cc\	-re
!LO:TX:a:t=P:problem:mixed beam	!	!	!	!	!	!	!
8C/L	.	8cc\L	.	8ee-\L	.	4r	.
8G\J	.	8bn\J	.	8dd\J	.	.	.
4C/	.	8cc\L	.	8ee-\L	.	4r	.
.	.	8g\J	.	8cc\J	.	.	.
8c\L	.	4r	.	4r	.	8ee-\	hic
!LO:SIC:v:s=8Bn	!	!	!	!	!	!	!
8B#X\J	.	.	.	.	.	8dd\	so-
!	!	!	!	!	!	!LO:PB:g=original	!
=58	=58	=58	=58	=58	=58	=58	=58
8c\L	.	1r	.	1r	.	8ee-\L	-la-
!LO:SIC:v:s=8Bn	!	!	!	!	!	!	!
8B#X\J	6	.	.	.	.	8dd\J	.
8c\L	.	.	.	.	.	8ee-\	-re
!LO:SIC:v:s=8Bn	!	!	!	!	!	!	!
8B#X\J	6	.	.	.	.	8dd\	so-
8c\L	.	.	.	.	.	8ee-\L	-la-
8Bn\J	.	.	.	.	.	8dd\	.
8c\L	.	.	.	.	.	8ee-\	.
8B\J	6	.	.	.	.	8dd\J	.
!LO:LB:g=original	!	!	!	!	!	!	!
=59	=59	=59	=59	=59	=59	=59	=59
*	*	*	*	*	*	*2\right	*
4A\	#	8r	.	16r	.	(2cc#X\	.
.	7	.	.	16a\LL	.	.	.
.	.	8e-/L	.	16cc#X\	.	.	.
!	!	!	!	!LO:SIC:v:s=16een	!	!	!
.	.	.	.	16ee-\JJ	.	.	.
4r	.	8e-/	.	16gg\LL	.	.	.
.	.	.	.	16a\	.	.	.
!	!	!	!	!LO:TX:a:t=P:problem:# above	!	!	!
.	.	8e-/J	.	16cc#X\	.	.	.
!	!	!	!	!LO:SIC:v:s=16een	!	!	!
.	.	.	.	16ee-\JJ	.	.	.
4AA/	#	8r	.	2gg\	.	8cc#\L)	.
.	7	8cc#X\L	.	.	.	8een\	.
4r	.	8een\	.	.	.	8cc#X\	.
.	.	8cc#\J	.	.	.	8a\J	.
=60	=60	=60	=60	=60	=60	=60	=60
4AA/	#	8r	.	8r	.	(2gg\	.
.	7	8cc#X\L	.	8een\L	.	.	.
4r	.	8een\	.	8cc#X\	.	.	.
.	.	8cc#\J	.	8a\J	.	.	.
4AA/	#	8r	.	2gg\	.	8gg\L)	.
!	!	!LO:LB:g=original	!	!	!	!	!
.	7	8cc#X\L	.	.	.	8een\	.
4r	.	8een\	.	.	.	8cc#X\	.
.	.	8cc#\J	.	.	.	8a\J	.
=61	=61	=61	=61	=61	=61	=61	=61
4D/	#	8r	.	8r	.	(2ff\	.
.	.	8dd\L	.	8ff\L	.	.	.
4r	.	8ff\	.	8dd\	.	.	.
.	.	8dd\J	.	8b-\J	.	.	.
4D/	.	8r	.	2ff\	.	8ff\L)	.
.	.	8dd\L	.	.	.	8ff\	.
4r	.	8ff\	.	.	.	8dd\	.
.	.	8dd\J	.	.	.	8a\J	.
!	!	!	!	!LO:PB:g=original	!	!	!
=62	=62	=62	=62	=62	=62	=62	=62
4AA/	#	8r	.	8r	.	2een\	.
.	.	8cc#X\L	.	8een\L	.	.	.
4r	.	8a\	.	8cc#X\	.	.	.
.	.	8cc#X\J	.	8a\J	.	.	.
4AA/	#	4a/	.	8gg\L	.	8ee\L	.
.	.	.	.	8een\	.	8gg\	.
4r	.	8r	.	8dd\	.	8ff\	.
!	!	!	!	!	!	!LO:TX:a:t=P:problem:# above	!
.	.	8a/	.	8cc#X\J	.	8ee#X\J	.
=63	=63	=63	=63	=63	=63	=63	=63
0r	.	8d/L	.	8dd\L	.	8ff\L	-re
!	!	!	!	!LO:TX:a:t=P:problem:# above	!	!LO:TX:a:t=P:problem:♮ above	!
.	.	8a/	.	8cc#X\	.	8een\	.
!	!	!	!	!	!	!LO:SIC:l:s=mae:v:t=zalana kartka	!
.	.	8d/	.	8dd\	.	8ff\	m-
!	!	!LO:SIC:v:s=8cc#	!	!LO:TX:a:t=P:problem:# above	!	!	!
.	.	8cc/J	.	8cc#X\J	.	8ee\J	.
!	!	!	!	!	!	!LO:LB:g=original	!
.	.	8d/L	.	8aa\L	.	8ff\	-sta
.	.	8g/	.	16gg\L	.	16een\LL	Sus-
.	.	.	.	16ff\JJ	.	16dd\JJ	.
.	.	8a/	.	4een\	.	8.cc#X\	-pi-
.	.	8A/J	.	.	.	.	.
.	.	.	.	.	.	16cc#\	-ri-
=64	=64	=64	=64	=64	=64	=64	=64
.	.	8d/L	.	8dd\L	.	8dd\	-a
.	.	8b-/J	.	8een\J	.	8g\	Suſ-
.	.	4en/	.	4cc#X\	.	8.a\	-pi-
.	.	.	.	.	.	16a\	-ri-
.	.	4f#X/	.	4dd\	.	4d/	-a
!LO:TX:b:B:t=Da Capo Usq(ue)\n ſygnum finis	!	!	!	!LO:TX:b:t=Da Capo\n Uſq(ue) ad ſygnum Finis	!	!LO:TX:b:t=Da Capo ad Finem.	!
.	.	4r	.	4r	.	4r	.
==	==	==;;	==	==	==	==	==
*-	*-	*-	*-	*-	*-	*-	*-
!!!system-decoration: s1[g1]s4
!!!RDF**kern: < = below
!!!ENC: Marta Lawrence
!!!END: 2020-11-03
!!!ENC: Kamil Watkowski
!!!END: 2020-05-23
